public/email_icon.svg

<svg width="128" height="102" viewBox="0 0 128 102" fill="none" xmlns="http://www.w3.org/2000/svg">
<path d="M12 0C5.38542 0 0 5.722 0 12.75V13.9564L64 62.3333L128 13.9564V12.75C128 5.722 122.615 0 116 0H12ZM14.2708 5.66667H113.719L64 42.5L14.2708 5.66667ZM0 19.9108V89.25C0 96.278 5.38542 102 12 102H116C122.615 102 128 96.278 128 89.25V19.9108L112 32.0078V96.3333H16V32.0078L0 19.9108Z" fill="white"/>
</svg>

<svg xmlns="http://www.w3.org/2000/svg" width="128" height="102" fill="none"><path fill="#fff" d="M12 0C5.385 0 0 5.722 0 12.75v1.206l64 48.377 64-48.377V12.75C128 5.722 122.615 0 116 0H12Zm2.27 5.667h99.449L64 42.5 14.27 5.667ZM0 19.91V89.25C0 96.278 5.385 102 12 102h104c6.615 0 12-5.722 12-12.75V19.91l-16 12.098v64.325H16V32.008L0 19.91Z"/></svg>
